X:19
T:Sean Ryan's HP #1 (C Whistle 1 note hi)
M:C|
L:1/8
S:L. Nugent's Windy Gap Trk 3
R:hornpipe
Z:sika
K:C
|:CDE| F2CF A2FA| cffc afcA| B2dB Acfe| dcBA GCDE|
       F2CF A2FA| cffc afcA| B2dB Afed| (3cdc (3BAG F:|
|:GAc| f2af cfaf| f2af cAFA| B2dB Acfe| dcBA GEFG|
(3ABc (3ABc dBcd| cffc afcA| B2dB Afed|(3cdc (3BAG E:|
